ui/public/imgs/providers/beget.svg

﻿<svg xmlns="http://www.w3.org/2000/svg" viewBox="-8 0 102 40" width="200" height="200" fill="none"><path d="M51.1169 23.7018C55.3726 26.7135 56.0689 32.1073 53.6787 35.9103C51.3031 39.6903 46.5389 41.0618 42.5714 39.1364C38.8582 37.3346 36.2591 32.5326 38.4518 27.3202C38.0955 27.2658 37.7554 27.213 37.4154 27.1603C37.404 27.1174 37.3927 27.0729 37.3813 27.03C38.7011 26.585 40.0209 26.1399 41.4087 25.6701C41.6063 27.1405 41.7958 28.545 41.9836 29.9478C41.948 29.966 41.9107 29.9857 41.8751 30.0039C41.5901 29.5802 41.3035 29.1582 41.0087 28.7214C39.9416 30.6138 40.4047 33.4871 42.0354 35.2509C43.875 37.239 46.7899 37.722 49.1429 36.4263C51.4958 35.1306 52.7055 32.3579 52.0626 29.7286C51.4035 27.0333 49.104 25.1706 46.398 25.1393C41.8443 25.0865 38.2445 21.8176 37.6777 17.2233C37.1546 12.9785 39.94 8.85243 44.1034 7.71004C48.0563 6.6237 52.2294 8.52273 54.0965 12.2582C55.9604 15.9853 55.0066 20.5351 51.8132 23.1529C51.5946 23.3292 51.3711 23.5007 51.1169 23.7018ZM40.4501 16.2359C40.4387 19.5625 43.0427 22.2561 46.2895 22.2775C49.5623 22.299 52.2391 19.6037 52.244 16.2821C52.2472 12.9818 49.6028 10.2767 46.364 10.2685C43.1058 10.2586 40.4614 12.9291 40.4501 16.2359Z" fill="currentColor"></path><path d="M3.99524 12.3437C4.33855 10.931 4.63975 9.61714 4.99116 8.31815C5.03974 8.13682 5.31341 7.96868 5.51907 7.88955C8.61369 6.7109 12.0694 7.71646 14.2637 10.4199C17.8474 14.8312 16.5098 21.8026 11.5998 24.305C7.46232 26.4133 2.48761 24.394 0.711157 19.8063C0.31441 18.7826 0.0553109 17.632 0.0407365 16.5358C-0.0272771 11.1436 0.00834906 5.7482 0.00834906 0.35442C0.00834906 0.243973 0.0196847 0.135174 0.0261622 0C0.954062 0.00164846 1.84472 0.00164846 2.81796 0.00164846C2.81796 0.220894 2.81796 0.44014 2.81796 0.661034C2.81796 5.84546 2.81796 11.0299 2.81796 16.2127C2.81796 17.8166 3.28758 19.2541 4.34017 20.4607C6.47774 22.912 9.90433 22.8823 12.016 20.408C14.1196 17.9452 13.9479 13.9955 11.6419 11.7354C9.64199 9.77705 6.66235 9.77869 4.65919 11.7371C4.47296 11.9184 4.27539 12.0882 3.99524 12.3437Z" fill="currentColor"></path><path d="M35.2406 17.6977C33.0641 17.6977 30.878 17.6977 28.6902 17.6977C26.5025 17.6977 24.3163 17.6977 22.0573 17.6977C22.5933 19.7665 23.6928 21.2617 25.6426 21.9903C27.6587 22.7436 29.4092 22.1403 31.461 20.0369C32.235 20.4984 33.0188 20.965 33.8479 21.4595C32.5006 23.3898 30.7808 24.6542 28.5202 25.0119C24.0297 25.7224 19.8679 22.4667 19.2218 17.7917C18.8056 14.7799 19.5213 12.1028 21.6006 9.89386C25.6458 5.59302 32.4585 7.07994 34.7127 12.7292C35.3588 14.3431 35.5596 16.1811 35.2406 17.6977ZM32.3662 14.8178C32.0585 12.2957 29.6214 10.2137 27.1097 10.2648C24.7309 10.3142 22.3115 12.5182 22.1334 14.8178C25.5357 14.8178 28.9364 14.8178 32.3662 14.8178Z" fill="currentColor"></path><path d="M73.4564 17.693C69.063 17.693 64.7037 17.693 60.2569 17.693C60.7378 19.6464 61.7386 21.1235 63.5394 21.8636C65.9911 22.8725 67.9861 22.0235 69.6363 20.0322C70.4217 20.4987 71.1957 20.957 72.0378 21.4581C71.8678 21.6905 71.7253 21.9032 71.5666 22.101C68.3084 26.1447 62.5726 26.1447 59.3096 22.1043C56.4724 18.5898 56.6522 13.2553 59.7193 9.95512C63.8713 5.48778 70.9221 7.13625 73.0305 13.0674C73.5519 14.5329 73.6961 16.0314 73.4564 17.693ZM70.5512 14.8148C70.331 12.3454 67.7789 10.181 65.2186 10.27C62.8689 10.3524 60.3719 12.6784 60.3459 14.8148C63.7482 14.8148 67.1489 14.8148 70.5512 14.8148Z" fill="currentColor"></path><path d="M85.4075 20.6699C85.7087 21.5914 86.0244 22.5261 86.3078 23.4707C86.3451 23.596 86.256 23.8333 86.1475 23.9207C83.7039 25.8972 79.3413 25.4076 77.3657 22.9448C76.7552 22.1832 76.3989 21.3128 76.3973 20.3221C76.3924 14.8129 76.394 9.30378 76.3957 3.79461C76.3957 3.68416 76.4086 3.57206 76.4183 3.43359C77.3349 3.43359 78.2256 3.43359 79.1842 3.43359C79.1842 4.92381 79.1842 6.41896 79.1842 7.95863C80.891 7.95863 82.5315 7.95863 84.2156 7.95863C84.2156 8.92628 84.2156 9.84612 84.2156 10.8171C82.5671 10.8171 80.9267 10.8171 79.2344 10.8171C79.2215 11.0446 79.2037 11.2275 79.2037 11.4089C79.202 14.2871 79.2134 17.1653 79.1939 20.0435C79.1891 20.7243 79.4676 21.2123 79.9793 21.5931C81.1971 22.503 83.3816 22.508 84.5864 21.5749C84.8925 21.3425 85.1144 20.9996 85.4075 20.6699Z" fill="currentColor"></path></svg>

﻿<svg xmlns="http://www.w3.org/2000/svg" width="200" height="200" fill="none" viewBox="-8 0 102 40"><path fill="currentColor" d="M51.117 23.702c4.256 3.011 4.952 8.405 2.562 12.208-2.376 3.78-7.14 5.152-11.108 3.226-3.713-1.801-6.312-6.603-4.12-11.816l-1.036-.16-.034-.13c1.32-.445 2.64-.89 4.028-1.36l.575 4.278-.109.056-.866-1.283c-1.067 1.893-.604 4.766 1.026 6.53 1.84 1.988 4.755 2.471 7.108 1.175 2.353-1.295 3.563-4.068 2.92-6.697-.66-2.696-2.959-4.558-5.665-4.59-4.554-.052-8.154-3.321-8.72-7.916-.523-4.244 2.262-8.37 6.425-9.513 3.953-1.086 8.126.813 9.993 4.548 1.864 3.727.91 8.277-2.283 10.895-.218.176-.442.348-.696.549M40.45 16.236c-.011 3.326 2.593 6.02 5.84 6.041 3.272.022 5.95-2.673 5.954-5.995.003-3.3-2.641-6.005-5.88-6.014-3.258-.01-5.903 2.661-5.914 5.968M3.995 12.344c.344-1.413.645-2.727.996-4.026.049-.181.322-.35.528-.428 3.095-1.18 6.55-.174 8.745 2.53 3.583 4.411 2.246 11.383-2.664 13.885-4.138 2.108-9.112.089-10.889-4.499-.397-1.023-.656-2.174-.67-3.27C-.027 11.144.008 5.748.008.354.008.244.02.135.026 0c.928.002 1.819.002 2.792.002v16.211c0 1.604.47 3.041 1.522 4.248 2.138 2.451 5.564 2.421 7.676-.053 2.104-2.463 1.932-6.413-.374-8.673-2-1.958-4.98-1.956-6.983.002-.186.181-.384.351-.664.607m31.245 5.354H22.058c.536 2.069 1.636 3.564 3.586 4.292 2.016.754 3.766.15 5.818-1.953l2.387 1.422c-1.347 1.93-3.067 3.195-5.328 3.553-4.49.71-8.652-2.545-9.298-7.22-.416-3.012.3-5.69 2.379-7.898 4.045-4.301 10.858-2.814 13.112 2.835.646 1.614.847 3.452.528 4.969m-2.874-2.88c-.307-2.522-2.745-4.604-5.256-4.553-2.38.05-4.799 2.253-4.977 4.553zm41.088 2.875h-13.2c.482 1.953 1.483 3.43 3.283 4.17 2.452 1.01 4.447.16 6.097-1.83.786.466 1.56.924 2.402 1.425-.17.233-.313.445-.471.643-3.259 4.044-8.994 4.044-12.257.003-2.838-3.514-2.658-8.849.41-12.149 4.151-4.467 11.202-2.819 13.31 3.112.522 1.466.666 2.964.426 4.626m-2.905-2.878c-.22-2.47-2.772-4.634-5.332-4.545-2.35.082-4.847 2.408-4.873 4.545zm14.857 5.855c.3.921.616 1.856.9 2.8.037.126-.052.363-.16.45-2.444 1.977-6.807 1.488-8.782-.975-.61-.762-.967-1.632-.969-2.623q-.006-8.264-.001-16.527c0-.11.013-.223.022-.361h2.766v4.525h5.032v2.858h-4.982c-.012.228-.03.41-.03.592-.002 2.878.01 5.756-.01 8.635-.005.68.274 1.168.785 1.55 1.218.909 3.403.914 4.607-.02.306-.232.528-.574.822-.904"/></svg>
